X:73
T:Bonapartes Waltz
O:No 73 Wm Clarke MS  Feltwell, Norfolk
I:abc2nwc
M:3/4
L:1/8
K:C
z|e2e2e2|(gf) (fd) d2|(Bd) (df) f2|
eg gc' c'g|e2e2e2|(gf) (fd) d2|(Bd) (df) (fd)|c4:|
|:d2|g4d2|b4g2|c'2a2^f2|ga bc' d'2|
g2g2d2|b2b2g2|c'2a2^f2|g4:|
|:ef|g2g2g2|gf ed c2|dc BA G2|cd ef g2|
a2a2a2|ag fe dc|Bc de fd|c4:|

